apex/img/safety-icon-3.svg

<svg width="72" height="72" viewBox="0 0 72 72" fill="none" xmlns="http://www.w3.org/2000/svg">
<path d="M68.909 0H2.95312C1.78802 0 0.84375 0.944275 0.84375 2.10938V34.4152C0.84375 45.7866 7.02191 56.2758 16.9673 61.7893L34.908 71.7352C35.226 71.9116 35.5787 72 35.9308 72C36.2829 72 36.6356 71.9116 36.9536 71.7352L54.8943 61.7893C64.8397 56.2758 71.0178 45.7866 71.0178 34.4152V2.10938C71.0184 0.944275 70.0735 0 68.909 0ZM66.7996 34.4152C66.7996 44.254 61.4542 53.3293 52.8492 58.0995L35.9308 67.4786L19.0124 58.0995C10.4079 53.3293 5.0625 44.254 5.0625 34.4152V4.21875H66.7996V34.4152Z" fill="#E5A132"/>
<path d="M17.4226 37.1453C17.7484 37.9358 18.5185 38.4516 19.3732 38.4516C20.228 38.4516 20.9981 37.9358 21.3239 37.1453L26.7022 24.0848C27.1455 23.0075 26.6325 21.7749 25.5552 21.331C24.4775 20.8872 23.2448 21.4013 22.8015 22.4786L19.3732 30.8029L15.9449 22.4786C15.5011 21.4013 14.2684 20.8877 13.1912 21.331C12.114 21.7749 11.6004 23.0075 12.0443 24.0848L17.4226 37.1453Z" fill="#E5A132"/>
<path d="M30.5524 38.4516C31.7175 38.4516 32.6617 37.5073 32.6617 36.3422V31.9213H38.0445C41.0081 31.9213 43.419 29.5104 43.419 26.5468C43.419 23.5833 41.0081 21.1723 38.0445 21.1723H30.5524C29.3873 21.1723 28.443 22.1166 28.443 23.2817V36.3422C28.443 37.5073 29.3873 38.4516 30.5524 38.4516ZM32.6617 25.3911H38.0445C38.6817 25.3911 39.2003 25.9096 39.2003 26.5468C39.2003 27.184 38.6817 27.7026 38.0445 27.7026H32.6617V25.3911Z" fill="#E5A132"/>
<path d="M47.1099 38.4516C48.275 38.4516 49.2192 37.5073 49.2192 36.3422V29.1605L56.239 37.6831C56.6476 38.1791 57.2491 38.4516 57.8677 38.4516C58.1055 38.4516 58.3467 38.4115 58.5796 38.328C59.4178 38.027 59.9771 37.2327 59.9771 36.3422V23.2817C59.9771 22.1166 59.0322 21.1723 57.8677 21.1723C56.7026 21.1723 55.7583 22.1166 55.7583 23.2817V30.4635L48.7386 21.9408C48.1728 21.2536 47.2357 20.9954 46.3979 21.2959C45.5597 21.5969 45.0005 22.3913 45.0005 23.2817V36.3422C45.0005 37.5073 45.9453 38.4516 47.1099 38.4516Z" fill="#E5A132"/>
</svg>

<svg width="72" height="72" fill="none" xmlns="http://www.w3.org/2000/svg"><path d="M68.909 0H2.953a2.11 2.11 0 00-2.11 2.11v32.305A31.312 31.312 0 0016.968 61.79l17.941 9.946a2.108 2.108 0 002.046 0l17.94-9.946a31.312 31.312 0 0016.124-27.374V2.11A2.111 2.111 0 0068.909 0zm-2.11 34.415A27.091 27.091 0 0152.85 58.1l-16.918 9.38-16.919-9.38a27.092 27.092 0 01-13.95-23.684V4.22H66.8v30.196z" fill="#E5A132"/><path d="M17.423 37.145a2.11 2.11 0 003.9 0l5.38-13.06a2.11 2.11 0 00-3.901-1.606l-3.429 8.324-3.428-8.324a2.11 2.11 0 00-3.9 1.606l5.378 13.06zm13.129 1.307a2.11 2.11 0 002.11-2.11v-4.42h5.383a5.38 5.38 0 005.374-5.375 5.38 5.38 0 00-5.374-5.375h-7.493a2.11 2.11 0 00-2.109 2.11v13.06a2.11 2.11 0 002.11 2.11zm2.11-13.06h5.383a1.156 1.156 0 01-.001 2.311h-5.382V25.39zm14.448 13.06a2.11 2.11 0 002.11-2.11v-7.181l7.019 8.522a2.11 2.11 0 003.738-1.34V23.281a2.11 2.11 0 00-4.219 0v7.181l-7.02-8.522a2.11 2.11 0 00-3.737 1.34v13.061a2.11 2.11 0 002.109 2.11z" fill="#E5A132"/></svg>
